X: 3396
M: 2/4
L: 1/8
K: G
d |\
dBGA | Bd2d | edBG | A3B |\
|:\
d2d>d | Bd2d | edBG | A3D |\


